X: 3463
T: Betty Fisher's Wedding
R: reel
M: 4/4
K: Gmajor
|:GBAc Bdce|B2d2 dcBc|A2c2 cBA2|GDEF GABc|
GBAc Bdce|B2d2 dcBc|A2cB ADEF|G2BA G4:|
[K:D]A2D2 FGA2|G2B2 A3A|cdef gec2|dfAd FAD2|
A2D2 FGA2|G2B2 A3A|cdef gec2|1 d2fe d4:|2 d2fe d2D2||

